proprietary/assets/icons/vervoersmiddelen/schip-op-water-boven-vaargeul.svg

<svg height="64" viewBox="0 0 64 64" width="64" xmlns="http://www.w3.org/2000/svg"><path d="m0 0h64v64h-64z" fill="none"/><path d="m18 16.8096c0 4.0109.8441 8.7872 1.4356 11.6504 1.2229-.3754 2.3463-.9646 2.8124-1.2549l2.252-1.4492 2.2715 1.4609c.6914.4336 2.9238 1.583 4.7285 1.583 1.7949 0 4.0361-1.1514 4.748-1.5947l2.252-1.4492 2.2715 1.4609c.4532.2842 1.5707.8714 2.7938 1.2454.5915-2.8576 1.4347-7.6257 1.4347-11.6526 0 0-1.6298-.8533-4-1.7518v-6.5578c0-.2762-.2239-.5-.5-.5h-2.5v-3.5c0-.2762-.2239-.5-.5-.5h-12c-.2762 0-.5.2238-.5.5v3.5h-2.5c-.2762 0-.5.2238-.5.5v3.8931c1.683-.4659 3.7591-.885 6.1655-1.0569 4.1597-.2971 7.0955.9127 8.9664 2.0582.244.1494.3149.3262.2958.4954-1.9031-.5146-3.9633-.8898-5.9277-.8898-6.2612 0-13.5 3.8096-13.5 3.8096zm11 6.1904h-7v-3c0-.5527.4478-1 1-1s1 .4473 1 1v1h3v-1c0-.5528.4478-1 1-1s1 .4472 1 1zm5-3c0-.5527.4478-1 1-1s1 .4473 1 1v1h3v-1c0-.5528.4478-1 1-1s1 .4472 1 1v3h-7z"/><path d="m59.5 31.08c-2.8506 0-5.8916-1.915-5.9189-1.9326l-1.0811-.6953-1.0811.6953c-.0302.0195-3.0859 1.9326-5.9189 1.9326-2.8506 0-5.8916-1.915-5.9189-1.9326l-1.0811-.6953-1.0811.6953c-.0302.0195-3.0859 1.9326-5.9189 1.9326-2.8506 0-5.8916-1.915-5.9189-1.9326l-1.0811-.6953-1.0811.6953c-.0302.0195-3.0859 1.9326-5.9189 1.9326-2.8506 0-5.8916-1.915-5.9189-1.9326l-1.0811-.6953-1.0811.6953c-.0302.0195-3.0859 1.9326-5.9189 1.9326-.1662 0-.3331-.0078-.5-.02v3.9216c.1664.0081.3327.0184.5.0184 2.8105 0 5.542-1.1914 7-1.9521 1.458.7607 4.1895 1.9521 7 1.9521s5.542-1.1914 7-1.9521c1.458.7607 4.1895 1.9521 7 1.9521s5.542-1.1914 7-1.9521c1.458.7607 4.1895 1.9521 7 1.9521s5.542-1.1914 7-1.9521c1.458.7607 4.1895 1.9521 7 1.9521.1673 0 .3336-.0103.5-.0184v-3.9218c-.167.0124-.3339.0202-.5.0202z"/><path d="m40.4346 56h-17.8692c-2.084-3.9814-8.4345-14-19.5654-14v4.9c9.6553 0 15.0225 11.1078 15.6016 12.3608.4873 1.0566 1.5556 1.7392 2.7216 1.7392h20.3535c1.166 0 2.2344-.6826 2.7207-1.7373.5801-1.2549 5.9473-12.3627 15.6026-12.3627v-4.9c-11.1289 0-17.4805 10.0156-19.5654 14z"/></svg>

<?xml version="1.0" encoding="utf-8"?>
<!-- Generator: Adobe Illustrator 17.1.0, SVG Export Plug-In . SVG Version: 6.00 Build 0)  -->
<svg version="1.2" baseProfile="tiny" xmlns="http://www.w3.org/2000/svg" xmlns:xlink="http://www.w3.org/1999/xlink" x="0px"
	 y="0px" width="64px" height="64px" viewBox="0 0 64 64" xml:space="preserve">
<g id="_x36_4px_Boxes">
	<rect fill="none" width="64" height="64"/>
</g>
<g id="Production">
	<g>
		<path d="M18,16.8096c0,4.0109,0.8441,8.7872,1.4356,11.6504c1.2229-0.3754,2.3463-0.9646,2.8124-1.2549l2.252-1.4492
			l2.2715,1.4609c0.6914,0.4336,2.9238,1.583,4.7285,1.583c1.7949,0,4.0361-1.1514,4.748-1.5947l2.252-1.4492l2.2715,1.4609
			c0.4532,0.2842,1.5707,0.8714,2.7938,1.2454C44.1568,25.6046,45,20.8365,45,16.8096c0,0-1.6298-0.8533-4-1.7518V8.5
			C41,8.2238,40.7761,8,40.5,8H38V4.5C38,4.2238,37.7761,4,37.5,4h-12C25.2238,4,25,4.2238,25,4.5V8h-2.5
			C22.2238,8,22,8.2238,22,8.5v3.8931c1.683-0.4659,3.7591-0.885,6.1655-1.0569c4.1597-0.2971,7.0955,0.9127,8.9664,2.0582
			c0.244,0.1494,0.3149,0.3262,0.2958,0.4954C35.5246,13.3752,33.4644,13,31.5,13C25.2388,13,18,16.8096,18,16.8096z M29,23h-7v-3
			c0-0.5527,0.4478-1,1-1s1,0.4473,1,1v1h3v-1c0-0.5528,0.4478-1,1-1s1,0.4472,1,1V23z M34,20c0-0.5527,0.4478-1,1-1s1,0.4473,1,1v1
			h3v-1c0-0.5528,0.4478-1,1-1c0.5522,0,1,0.4472,1,1v3h-7V20z"/>
		<path d="M59.5,31.08c-2.8506,0-5.8916-1.915-5.9189-1.9326L52.5,28.4521l-1.0811,0.6953C51.3887,29.1669,48.333,31.08,45.5,31.08
			c-2.8506,0-5.8916-1.915-5.9189-1.9326L38.5,28.4521l-1.0811,0.6953C37.3887,29.1669,34.333,31.08,31.5,31.08
			c-2.8506,0-5.8916-1.915-5.9189-1.9326L24.5,28.4521l-1.0811,0.6953C23.3887,29.1669,20.333,31.08,17.5,31.08
			c-2.8506,0-5.8916-1.915-5.9189-1.9326L10.5,28.4521l-1.0811,0.6953C9.3887,29.1669,6.333,31.08,3.5,31.08
			c-0.1662,0-0.3331-0.0078-0.5-0.02v3.9216C3.1664,34.9897,3.3327,35,3.5,35c2.8105,0,5.542-1.1914,7-1.9521
			C11.958,33.8086,14.6895,35,17.5,35s5.542-1.1914,7-1.9521C25.958,33.8086,28.6895,35,31.5,35s5.542-1.1914,7-1.9521
			C39.958,33.8086,42.6895,35,45.5,35s5.542-1.1914,7-1.9521C53.958,33.8086,56.6895,35,59.5,35c0.1673,0,0.3336-0.0103,0.5-0.0184
			v-3.9218C59.833,31.0722,59.6661,31.08,59.5,31.08z"/>
		<path d="M40.4346,56H22.5654C20.4814,52.0186,14.1309,42,3,42v4.9c9.6553,0,15.0225,11.1078,15.6016,12.3608
			C19.0889,60.3174,20.1572,61,21.3232,61h20.3535c1.166,0,2.2344-0.6826,2.7207-1.7373C44.9775,58.0078,50.3447,46.9,60,46.9V42
			C48.8711,42,42.5195,52.0156,40.4346,56z"/>
	</g>
</g>
</svg>
